!!!OTL: Mailust und Abschied
!!!ARE: Europa, Mitteleuropa, Deutschland
!!!SCT: A0264
!!!YEM: Copyright 1995, estate of Helmut Schaffrath.
**kern
*ICvox
*Ivox
*M3/2
*k[]
*a:
{2ee
2ee
2ee
=1
2ee
2dd
2ee
=2
2.ggn
4ffn
4ee
4dd
=3
2ee
2ccn
2r}
=4
{2ee
2ee
2ee
=5
1ee
2dd
=6
2.ccn
4b
4ccn
4dd
=7
1ee
2r}
=8
{2ee
2ee
2ee
=9
2ee
2dd
2ee
=10
2.ggn
4ff#
4ee
4dd
=11
2ee
2ccn
2r}
=12
{2ee
2ee
2ee
=13
1ee
2dd
=14
2.ccn
4b
4ccn
4dd
=15
1ee
2r}
=16
{2ee
2.ee
4dd
=17
1ccn
4b
4a
=18
1gn
2r}
=19
{2ggn
2ggn
2ggn
=20
2aa
2ffn
2ggn
=21
1ee
4dd
4ccn
=22
2b
2a}
{2ee
=23
1ee
2ccn
=24
2.dd
4ccn
4b
4a
=25
1b
2b
=26
1.a}
==
!!!AGN: Romanze, Ballade, Lied
!! Forster III 1549 No. 18.
!!!ONB: ESAC (Essen Associative Code) Database: ALTDEU
!!!AMT: simple triple
!!!AIN: vox
!!!EED: Helmut Schaffrath
!!!EEV: 1.0
*-
